X:96
T:Buttered Peas
C:Traditional English
S:Colin Hume's website,  colinhume.com  - chords can also be printed below the stave.
Q:1/2=112
M:4/4
L:1/4
K:G
P:A
|: "G"Bd dc/B/ | "C"ce e2 | "G"Bd "Em"dc/B/ | "Am"cA "D7"A2 |\
"G"Bd dc/B/ | "C"ce e2 | "G"Bd "D7"Ac | "G"BG G2 :|
P:B
|: "G"Bd de/f/ | "Em"g/f/g/a/ g2 | "G"Bd "Em"dc/B/ | "Am"cA "D7"A2 |\
"G"Bd de/f/ | "Em"g/f/g/a/ g2 | "G"Bd "D7"Ac | "G"BG G2 :|

